X: 1181
T: An Coire Bhreacain
R: jig
M: 6/8
K: Adorian
|:E|GAB cde|fge gga|edc BAG|B/c/d c BAD|
E2A B/c/d =f|ecA AAG|B/c/d c BAG|A3 z2:|
B|cee ede|e2A B/c/d c|~B3 BAG|d2e BAD|
e2B BAB|c2B ABc|~d3 BAG|bag a2b|
c'2e ede|e2A B/c/d c|~B3 BAG|d2e BAD|
DEB BAB|c2B ABc|~d3 e3|~g3 geg|

